img/Pie chart.svg

<svg width="102" height="103" viewBox="0 0 102 103" fill="none" xmlns="http://www.w3.org/2000/svg">
<path d="M102 51.4403C102 79.6068 79.1665 102.44 51 102.44C22.8335 102.44 0 79.6068 0 51.4403C0 23.2738 22.8335 0.440308 51 0.440308C79.1665 0.440308 102 23.2738 102 51.4403ZM17.7993 51.4403C17.7993 69.7765 32.6638 84.641 51 84.641C69.3362 84.641 84.2007 69.7765 84.2007 51.4403C84.2007 33.1041 69.3362 18.2396 51 18.2396C32.6638 18.2396 17.7993 33.1041 17.7993 51.4403Z" fill="#C4C4C4"/>
<path d="M42.4652 1.15952C49.4355 -0.02363 56.5756 0.25538 63.4323 1.97884C70.289 3.70229 76.7125 6.83254 82.2949 11.1709C87.8773 15.5092 92.4968 20.9608 95.86 27.1796C99.2232 33.3984 101.257 40.2485 101.831 47.2951C102.406 54.3417 101.509 61.4308 99.198 68.1123C96.8868 74.7938 93.2116 80.9219 88.4059 86.1073C83.6001 91.2928 77.7686 95.4224 71.2818 98.234C64.7949 101.046 57.7943 102.478 50.7245 102.44L50.8201 84.7405C55.4364 84.7655 60.0075 83.8303 64.2431 81.9945C68.4787 80.1586 72.2864 77.4622 75.4243 74.0763C78.5623 70.6904 80.962 66.6891 82.4711 62.3264C83.9802 57.9636 84.5657 53.3348 84.1905 48.7337C83.8153 44.1326 82.4875 39.6597 80.2915 35.5992C78.0955 31.5386 75.0792 27.9789 71.4342 25.1462C67.7891 22.3134 63.5949 20.2695 59.1177 19.1442C54.6406 18.0189 49.9785 17.8367 45.4272 18.6092L42.4652 1.15952Z" fill="#102B7B"/>
<path d="M7.04815 77.3099C2.60313 69.7579 0.178996 61.1879 0.0095368 52.4265C-0.159923 43.6651 1.93101 35.0079 6.08068 27.2896C10.2303 19.5714 16.2987 13.0526 23.7007 8.36194C31.1026 3.67125 39.5883 0.96692 48.3394 0.509757L49.2627 18.185C43.5486 18.4835 38.0079 20.2493 33.1748 23.3121C28.3417 26.3749 24.3793 30.6314 21.6697 35.671C18.9602 40.7107 17.5949 46.3635 17.7055 52.0843C17.8162 57.8051 19.399 63.4009 22.3014 68.332L7.04815 77.3099Z" fill="#F2994A"/>
<path d="M51 102.44C37.474 102.44 24.5019 97.0671 14.9376 87.5028C5.3732 77.9384 -3.76269e-07 64.9663 0 51.4403C3.76269e-07 37.9143 5.3732 24.9422 14.9376 15.3779C24.5019 5.81351 37.474 0.440307 51 0.440308V18.1396C42.1681 18.1396 33.6979 21.6481 27.4529 27.8932C21.2078 34.1382 17.6993 42.6084 17.6993 51.4403C17.6993 60.2722 21.2078 68.7424 27.4529 74.9875C33.6979 81.2326 42.1681 84.741 51 84.741L51 102.44Z" fill="#2ECC71"/>
</svg>

<?xml version="1.0" encoding="UTF-8"?>
<svg id="Layer_1" xmlns="http://www.w3.org/2000/svg" version="1.1" viewBox="0 0 102 103">
  <!-- Generator: Adobe Illustrator 29.7.1, SVG Export Plug-In . SVG Version: 2.1.1 Build 8)  -->
  <defs>
    <style>
      .st0 {
        fill: #f2994a;
      }

      .st1 {
        fill: #c4c4c4;
      }

      .st2 {
        fill: #2ecc71;
      }

      .st3 {
        fill: #102b7b;
      }
    </style>
  </defs>
  <path class="st1" d="M102,51.44c0,28.17-22.83,51-51,51S0,79.61,0,51.44,22.83.44,51,.44s51,22.83,51,51ZM17.8,51.44c0,18.34,14.86,33.2,33.2,33.2s33.2-14.86,33.2-33.2-14.86-33.2-33.2-33.2-33.2,14.86-33.2,33.2Z"/>
  <path class="st3" d="M42.47,1.16c6.97-1.18,14.11-.9,20.97.82,6.86,1.72,13.28,4.85,18.86,9.19,5.58,4.34,10.2,9.79,13.57,16.01s5.4,13.07,5.97,20.12c.57,7.05-.32,14.14-2.63,20.82-2.31,6.68-5.99,12.81-10.79,18-4.81,5.19-10.64,9.32-17.12,12.13-6.49,2.81-13.49,4.24-20.56,4.21l.1-17.7c4.62.03,9.19-.91,13.42-2.75,4.24-1.84,8.04-4.53,11.18-7.92,3.14-3.39,5.54-7.39,7.05-11.75,1.51-4.36,2.09-8.99,1.72-13.59s-1.7-9.07-3.9-13.13c-2.2-4.06-5.21-7.62-8.86-10.45-3.65-2.83-7.84-4.88-12.32-6-4.48-1.13-9.14-1.31-13.69-.53l-2.96-17.45Z"/>
  <path class="st2" d="M42.47,1.22c6.97-1.18,14.11-.9,20.97.82,6.86,1.72,13.28,4.85,18.86,9.19,5.58,4.34,10.2,9.79,13.57,16.01s5.4,13.07,5.97,20.12c.57,7.05-.32,14.14-2.63,20.82-2.31,6.68-5.99,12.81-10.79,18-4.81,5.19-10.64,9.32-17.12,12.13-6.49,2.81-13.49,4.24-20.56,4.21l.1-17.7c4.62.03,9.19-.91,13.42-2.75,4.24-1.84,8.04-4.53,11.18-7.92,3.14-3.39,5.54-7.39,7.05-11.75,1.51-4.36,2.09-8.99,1.72-13.59s-1.7-9.07-3.9-13.13c-2.2-4.06-5.21-7.62-8.86-10.45-3.65-2.83-7.84-4.88-12.32-6-4.48-1.13-9.14-1.31-13.69-.53l-2.96-17.45Z"/>
  <path class="st0" d="M7.05,77.31C2.6,69.76.18,61.19,0,52.43c-.17-8.76,1.92-17.42,6.07-25.14,4.15-7.72,10.22-14.24,17.62-18.93C31.1,3.67,39.59.97,48.34.51l.92,17.68c-5.71.3-11.25,2.06-16.09,5.13-4.83,3.06-8.8,7.32-11.51,12.36-2.71,5.04-4.07,10.69-3.96,16.41.11,5.72,1.69,11.32,4.6,16.25l-15.25,8.98Z"/>
  <path class="st2" d="M51,102.44c-13.53,0-26.5-5.37-36.06-14.94C5.37,77.94,0,64.97,0,51.44S5.37,24.94,14.94,15.38C24.5,5.81,37.47.44,51,.44v17.7c-8.83,0-17.3,3.51-23.55,9.75-6.25,6.24-9.75,14.72-9.75,23.55s3.51,17.3,9.75,23.55c6.24,6.25,14.72,9.75,23.55,9.75v17.7Z"/>
</svg>
